app/images/icons/plus.svg

<svg width="25" height="25" viewBox="0 0 25 25" fill="none" xmlns="http://www.w3.org/2000/svg">
<path d="M12.5 0C5.60769 0 0 5.60721 0 12.5C0 19.3928 5.60769 25 12.5 25C19.3923 25 25 19.3928 25 12.5C25 5.60721 19.3923 0 12.5 0ZM18.5096 13.4615H13.4615V18.75C13.4615 19.2808 13.0308 19.7115 12.5 19.7115C11.9692 19.7115 11.5385 19.2808 11.5385 18.75V13.4615H6.49038C5.95962 13.4615 5.52885 13.0308 5.52885 12.5C5.52885 11.9692 5.95962 11.5385 6.49038 11.5385H11.5385V6.73077C11.5385 6.2 11.9692 5.76923 12.5 5.76923C13.0308 5.76923 13.4615 6.2 13.4615 6.73077V11.5385H18.5096C19.0404 11.5385 19.4712 11.9692 19.4712 12.5C19.4712 13.0308 19.0404 13.4615 18.5096 13.4615Z" fill="black"/>
</svg>

<svg width="25" height="25" xmlns="http://www.w3.org/2000/svg">
  <path d="M12.5 0C5.6 0 0 5.6 0 12.5S5.6 25 12.5 25 25 19.4 25 12.5 19.4 0 12.5 0Zm6.01 13.46h-5.05v5.29a.96.96 0 0 1-1.92 0v-5.29H6.49a.96.96 0 0 1 0-1.92h5.05v-4.8a.96.96 0 0 1 1.92 0v4.8h5.05a.96.96 0 0 1 0 1.92Z" fill="#222" />
</svg>
